outputs/icons/enterprise/barcode_done_round.svg

<svg xmlns="http://www.w3.org/2000/svg" width="1200" height="1200" fill="none"><path fill="#000" d="m881.25 725-375 375-187.5-187.5 62.5-62.5 125 125 312.5-312.5zM225 850H100V100h125zM1100 850H975V100h125zM381.25 693.75H287.5V100h93.75zM506.25 693.75h-62.5V100h62.5zM631.25 693.75h-62.5V100h62.5zM787.5 605.37l-88.38 88.38h-5.37V100h93.75zM912.5 100v567.87l-62.5-62.5V100z"/></svg>

<svg width="1200" height="1200" viewBox="0 0 1200 1200" fill="none" xmlns="http://www.w3.org/2000/svg"><path fill-rule="evenodd" d="M100 100H225V850H100V100ZM975 100H1100V850H975V100ZM506.25 100H443.75V693.75H506.25V100ZM287.5 100H381.25V693.75H287.5V100ZM631.25 100H568.75V693.75H631.25V100ZM318.75 912.5L381.25 850L506.25 975L818.75 662.5L881.25 725L506.25 1100L318.75 912.5ZM787.5 605.35V100H693.75V693.75H699.1L787.5 605.35ZM912.5 667.85L850 605.35V100H912.5V667.85Z" fill="#1D1E23"/></svg>
